images/icons/vk.svg

<svg width="40" height="40" viewBox="0 0 40 40" fill="none" xmlns="http://www.w3.org/2000/svg">
<g clip-path="url(#clip0_257_245)">
<mask id="mask0_257_245" style="mask-type:luminance" maskUnits="userSpaceOnUse" x="0" y="0" width="40" height="40">
<path d="M0 0H40V40H0V0Z" fill="white"/>
</mask>
<g mask="url(#mask0_257_245)">
<mask id="mask1_257_245" style="mask-type:luminance" maskUnits="userSpaceOnUse" x="0" y="0" width="40" height="40">
<path d="M40 0H0V40H40V0Z" fill="white"/>
</mask>
<g mask="url(#mask1_257_245)">
<path d="M19.18 40H20.845C29.886 40 34.408 40 37.216 37.192C40.024 34.384 40 29.864 40 20.845V19.155C40 10.138 40 5.616 37.216 2.808C34.432 0 29.886 0 20.845 0H19.179C10.136 0 5.616 0 2.808 2.808C0 5.616 0 10.134 0 19.155V20.845C0 29.864 0 34.384 2.808 37.192C5.616 40 10.137 40 19.18 40Z" fill="#2E2C31"/>
<path d="M21.4638 28.8396C12.4438 28.8396 6.97079 22.5816 6.75879 12.1836H11.3258C11.4688 19.8216 14.9438 23.0636 17.6078 23.7236V12.1836H21.9878V18.7736C24.5568 18.4886 27.2448 15.4906 28.1508 12.1836H32.4558C31.7658 16.2526 28.8398 19.2506 26.7698 20.4876C28.8398 21.4876 32.1708 24.1046 33.4558 28.8396H28.7218C27.7218 25.6746 25.2698 23.2236 21.9868 22.8896V28.8396H21.4638Z" fill="#F6F6F6"/>
</g>
</g>
</g>
<defs>
<clipPath id="clip0_257_245">
<rect width="40" height="40" fill="white"/>
</clipPath>
</defs>
</svg>

<svg xmlns="http://www.w3.org/2000/svg" width="40" height="40" fill="none"><g clip-path="url(#a)"><mask id="b" width="40" height="40" x="0" y="0" maskUnits="userSpaceOnUse" style="mask-type:luminance"><path fill="#fff" d="M40 0H0v40h40V0Z"/></mask><g mask="url(#b)"><path fill="#000" d="M19.18 40h1.665c9.041 0 13.563 0 16.371-2.808C40.024 34.384 40 29.864 40 20.845v-1.69c0-9.017 0-13.539-2.784-16.347C34.432 0 29.886 0 20.845 0h-1.666C10.136 0 5.616 0 2.808 2.808 0 5.616 0 10.134 0 19.155v1.69c0 9.019 0 13.539 2.808 16.347C5.616 40 10.136 40 19.179 40Z"/><path fill="#fff" d="M21.464 28.84c-9.02 0-14.493-6.258-14.705-16.656h4.567c.143 7.638 3.618 10.88 6.282 11.54v-11.54h4.38v6.59c2.569-.285 5.257-3.283 6.163-6.59h4.305c-.69 4.069-3.616 7.067-5.686 8.304 2.07 1 5.401 3.617 6.686 8.352h-4.734c-1-3.165-3.452-5.616-6.735-5.95v5.95h-.523Z"/></g></g><defs><clipPath id="a"><path fill="#fff" d="M0 0h40v40H0z"/></clipPath></defs></svg>
